X: 595
T: Achonry Lasses, The
R: reel
M: 4/4
K: Gmajor
G2AF DEFA|dBcA BGAF|G2AG FGAF|Dddc BGAF|
G2AF DEFA|dBcA BGAF|GBAF DEFA|dBcA AG(3B/c/d||
g2ag f/g/fdf|fecB cdef|g2ag fdde|fdec BGBd|
g2ag f/g/fdf|fecB cdef|gbaf gdBG|cedc BGAF||

